X:12
T:Bonie Nanie
Z:Jack Campin - http://www.campin.me.uk
S:Blaikie MS (NLS MS.1578) p4, Blaikie #11
M:C|
L:1/8
V:1 midi program 1 74
V:2 midi program 1 46 bass middle = d transpose -24
Q:1/4=100
K:Eb
[V:1] BGFE B,2E2|F2 E2 D2F2|BGFE B,2E2|G3 F E2e2||
[V:2] E2e2 E2 e2|a2=a2 b2B2|E2e2 g2 g2|e2B2 e2E2||
%
[V:1] G3 F E2 e2|F2 E2 D2F2|G3 F E2 e2|G3 F E2fg |
[V:2] e2B2 c2 G2|A2=A2 B2b2|E2e2 E2 z2|E2e2 E2z2 |
%
[V:1] gfed ed`cB|AG`FE D2F2|GAB2 B,2E2|G3 F E2e2|]
[V:2] e2z2 g2 z2|a2=a2 b2B2|E2e2 E2 e2|e2B2 e2E2|]
W:Transcription (c) Jack Campin 2009, no mirroring or republication without permission

